public/images/case-studies/filemaker/expert-list-icon.svg

<svg width="16" height="16" viewBox="0 0 16 16" fill="none" xmlns="http://www.w3.org/2000/svg">
<path d="M8 0C3.58887 0 0 3.58887 0 8C0 12.4111 3.58887 16 8 16C12.4111 16 16 12.4111 16 8C16 3.58887 12.4111 0 8 0ZM12.569 5.70703L6.80469 11.4713C6.67447 11.6016 6.50391 11.6667 6.33334 11.6667C6.16278 11.6667 5.99219 11.6016 5.862 11.4713L2.76437 8.37369C2.63416 8.24353 2.63416 8.03247 2.76437 7.90228L3.23566 7.43097C3.36588 7.30081 3.57687 7.30081 3.70709 7.43097L6.33334 10.0573L11.6263 4.76431C11.7565 4.63416 11.9675 4.63416 12.0977 4.76431L12.569 5.23562C12.6992 5.36581 12.6992 5.57688 12.569 5.70703Z" fill="#FF6B00"/>
</svg>

<svg xmlns="http://www.w3.org/2000/svg" width="16" height="16" fill="none" xmlns:v="https://vecta.io/nano"><path d="M8 0a8.01 8.01 0 0 0-8 8 8.01 8.01 0 0 0 8 8 8.01 8.01 0 0 0 8-8 8.01 8.01 0 0 0-8-8zm4.569 5.707l-5.764 5.764c-.13.13-.301.195-.471.195s-.341-.065-.471-.195L2.764 8.374c-.13-.13-.13-.341 0-.471l.471-.471c.13-.13.341-.13.471 0l2.626 2.626 5.293-5.293c.13-.13.341-.13.471 0l.471.471c.13.13.13.341 0 .471z" fill="#ff6b00"/></svg>
